assets/img/braze_icons/brackets-plus.svg

<svg fill="none" height="24" viewBox="0 0 24 24" width="24" xmlns="http://www.w3.org/2000/svg"><g fill="#801ed7"><path d="m5.429 3c-1.81528 0-3.286 1.47071-3.286 3.286v4.1568l-.85011.8501c-.18753.1875-.29289.4419-.29289.7071s.10536.5196.29289.7071l.85011.8501v4.1568c0 1.8153 1.47072 3.286 3.286 3.286.55228 0 1-.4477 1-1s-.44772-1-1-1c-.71072 0-1.286-.5753-1.286-1.286v-4.571c0-.2652-.10536-.5196-.29289-.7071l-.4359-.4359.4359-.4359c.18753-.1875.29289-.4419.29289-.7071v-4.571c0-.71072.57528-1.286 1.286-1.286.55228 0 1-.44772 1-1s-.44772-1-1-1z"/><path d="m18.5708 3c-.5523 0-1 .44772-1 1s.4477 1 1 1c.7107 0 1.286.57529 1.286 1.286v4.571c0 .2652.1054.5196.2929.7071l.4359.4359-.4359.4359c-.1875.1875-.2929.4419-.2929.7071v4.571c0 .7104-.576 1.286-1.286 1.286-.5523 0-1 .4477-1 1s.4477 1 1 1c1.814 0 3.286-1.4704 3.286-3.286v-4.1568l.8501-.8501c.3905-.3905.3905-1.0237 0-1.4142l-.8501-.8501v-4.1568c0-1.81529-1.4707-3.286-3.286-3.286z"/><path d="m12 7c.5523 0 1 .44772 1 1v3h3c.5523 0 1 .4477 1 1s-.4477 1-1 1h-3v3c0 .5523-.4477 1-1 1s-1-.4477-1-1v-3h-3c-.55228 0-1-.4477-1-1s.44772-1 1-1h3v-3c0-.55228.4477-1 1-1z"/></g></svg>

<svg width="24" height="24" viewBox="0 0 24 24" fill="none" xmlns="http://www.w3.org/2000/svg">
<path d="M5.429 3C3.61372 3 2.143 4.47071 2.143 6.286V10.4428L1.29289 11.2929C1.10536 11.4804 1 11.7348 1 12C1 12.2652 1.10536 12.5196 1.29289 12.7071L2.143 13.5572V17.714C2.143 19.5293 3.61372 21 5.429 21C5.98128 21 6.429 20.5523 6.429 20C6.429 19.4477 5.98128 19 5.429 19C4.71828 19 4.143 18.4247 4.143 17.714V13.143C4.143 12.8778 4.03764 12.6234 3.85011 12.4359L3.41421 12L3.85011 11.5641C4.03764 11.3766 4.143 11.1222 4.143 10.857V6.286C4.143 5.57528 4.71828 5 5.429 5C5.98128 5 6.429 4.55228 6.429 4C6.429 3.44772 5.98128 3 5.429 3Z" fill="#801ED7"/>
<path d="M18.5708 3C18.0185 3 17.5708 3.44772 17.5708 4C17.5708 4.55228 18.0185 5 18.5708 5C19.2815 5 19.8568 5.57529 19.8568 6.286V10.857C19.8568 11.1222 19.9622 11.3766 20.1497 11.5641L20.5856 12L20.1497 12.4359C19.9622 12.6234 19.8568 12.8778 19.8568 13.143V17.714C19.8568 18.4244 19.2808 19 18.5708 19C18.0185 19 17.5708 19.4477 17.5708 20C17.5708 20.5523 18.0185 21 18.5708 21C20.3848 21 21.8568 19.5296 21.8568 17.714V13.5572L22.7069 12.7071C23.0974 12.3166 23.0974 11.6834 22.7069 11.2929L21.8568 10.4428V6.286C21.8568 4.47071 20.3861 3 18.5708 3Z" fill="#801ED7"/>
<path d="M12 7C12.5523 7 13 7.44772 13 8V11H16C16.5523 11 17 11.4477 17 12C17 12.5523 16.5523 13 16 13H13V16C13 16.5523 12.5523 17 12 17C11.4477 17 11 16.5523 11 16V13H8C7.44772 13 7 12.5523 7 12C7 11.4477 7.44772 11 8 11H11V8C11 7.44772 11.4477 7 12 7Z" fill="#801ED7"/>
</svg>
